X:16
T:Willie Coleman's
R:jig
E:10
S:M. Molloy
I:speed 350
M:6/8
K:G
A|B2G AGE|GED G2d|edB dgb|age dBA|\
B2G AGE|GED G2d|edB dBA|BGG G2:|*
~g3 edB|dgb age|~g3 edB|GBd e3|\
~g3 edB|dgb age|dBd gdB|AGF G3:|**
<end>
<start>
